icons/permify.svg

<!--
  - The MIT License (MIT)
  -
  - Copyright (c) 2015-2024 Elior "Mallowigi" Boukhobza
  -
  - Permission is hereby granted, free of charge, to any person obtaining a copy
  - of this software and associated documentation files (the "Software"), to deal
  - in the Software without restriction, including without limitation the rights
  - to use, copy, modify, merge, publish, distribute, sublicense, and/or sell
  - copies of the Software, and to permit persons to whom the Software is
  - furnished to do so, subject to the following conditions:
  -
  - The above copyright notice and this permission notice shall be included in all
  - copies or substantial portions of the Software.
  -
  - THE SOFTWARE IS PROVIDED "AS IS", WITHOUT WARRANTY OF ANY KIND, EXPRESS OR
  - IMPLIED, INCLUDING BUT NOT LIMITED TO THE WARRANTIES OF MERCHANTABILITY,
  - FITNESS FOR A PARTICULAR PURPOSE AND NONINFRINGEMENT. IN NO EVENT SHALL THE
  - AUTHORS OR COPYRIGHT HOLDERS BE LIABLE FOR ANY CLAIM, DAMAGES OR OTHER
  - LIABILITY, WHETHER IN AN ACTION OF CONTRACT, TORT OR OTHERWISE, ARISING FROM,
  - OUT OF OR IN CONNECTION WITH THE SOFTWARE OR THE USE OR OTHER DEALINGS IN THE
  - SOFTWARE.
  -
  -->

<svg xmlns="http://www.w3.org/2000/svg" width="16px" height="16px" viewBox="0 0 184 172" fill="none">
  <path
      d="M51.3651 164.298C48.5598 169.211 42.3054 170.939 37.7876 167.575C24.2917 157.525 13.7308 143.872 7.34902 128.058C-0.31756 109.06 -1.51706 88.0234 3.93946 68.2604C9.39598 48.4975 21.1985 31.1316 37.488 18.8977C53.7776 6.6639 73.6287 0.257328 93.9147 0.687038C114.201 1.11675 133.769 8.35832 149.538 21.2712C165.307 34.1841 176.38 52.0346 181.013 72.0113C185.646 91.988 183.577 112.956 175.13 131.612C168.099 147.142 156.982 160.336 143.082 169.805C138.429 172.975 132.251 170.984 129.652 165.956L100.436 109.443C98.5844 105.86 100.312 101.418 101.976 97.7426V97.7426C102.989 95.5038 103.238 92.9877 102.682 90.5905C102.126 88.1933 100.797 86.0512 98.9045 84.5017C97.0123 82.9521 94.6641 82.0832 92.2298 82.0316C89.7954 81.98 87.4133 82.7488 85.4586 84.2169C83.5038 85.6849 82.0875 87.7688 81.4327 90.1404C80.778 92.512 80.9219 95.0364 81.8419 97.3161V97.3161C83.3523 101.059 84.894 105.57 82.8952 109.071L51.3651 164.298Z"
      data-iconColor="Permify" fill="#8449ff"/>
</svg>

<svg xmlns="http://www.w3.org/2000/svg" fill="none" viewBox="0 0 184 172"><path fill="#8449ff" d="M51.365 164.298c-2.805 4.913-9.06 6.641-13.577 3.277-13.496-10.05-24.057-23.703-30.439-39.517a93.43 93.43 0 0 1-3.41-59.798C9.396 48.497 21.2 31.132 37.488 18.898 53.778 6.664 73.628.258 93.915.687s39.854 7.671 55.623 20.584 26.842 30.764 31.475 50.74a93.4 93.4 0 0 1-5.883 59.601c-7.031 15.53-18.148 28.724-32.048 38.193-4.653 3.17-10.831 1.179-13.43-3.849l-29.216-56.513c-1.852-3.583-.124-8.025 1.54-11.7a11.2 11.2 0 0 0 .706-7.152 11.1 11.1 0 0 0-3.778-6.09 10.9 10.9 0 0 0-6.674-2.47 10.9 10.9 0 0 0-6.771 2.186 11.1 11.1 0 0 0-4.026 5.923 11.2 11.2 0 0 0 .409 7.176c1.51 3.743 3.052 8.254 1.053 11.755z" data-iconColor="Permify"/></svg>
